X:1
T:James Gibb editions
T:Psalm 114 (Becker) - Schütz
%%score [ ( 1 2 ) ( 3 4 ) ]
L:1/8
Q:1/4=98
M:2/2
K:G
V:1 treble nm="Soprano Alto"
V:2 treble 
V:3 bass nm="Tenor Bass"
V:4 bass 
V:1
"^Cornelius Becker\n(1561-1604)""^Psalm 114, SWV 212""^Heinrich Schütz\n(1585-1672)" D4 E2 F2 | %1
w: ~Als das Volk|
w: und Ja- kob|
 G2 A2 B2 ^c2 | d4 e4 | d2 B2 =c2 B2 | A4 G4 :|[M:2/2] B4 A2 B2 | c2 B2 A3 A | F2 D2 G2 A2 | %8
w: Is- ra- el aus-|zog aus|der Ä- gyp- ter|Lan- de|da ward Ju-|da das Hei- lig-|tum zu Got- tes|
w: wurd vom frem- den|Joch er-|löst durch Got- tes|Han- de,||||
 B2 d4 ^c2 | d4 A4 | G2 A2 B2 A2 | G3 G F2 B2 | A2 G2 d2 c2 | B4 A4 | c4 B2 c2 | d2 G2 B4 | %16
w: Lob und Prei-|se, Gott|sei- nem Volk mit|Ehr und Ruhm die|Macht und Herr- schaft|lei- stet,|die er ihm|hat ver- hei\-|
w: ||||||||
 A4 G8 |] %17
w: * ßen.|
w: |
V:2
 B,4 C2 D2 | E2 F2 G2 G2 | F4 G4 | G2 G2 A2 G2 | (G2 F2) G4 :|[M:2/2] G4 F2 G2 | G2 G2 E3 E | %7
 D2 B,2 E2 F2 | G2 F2 A4 | A4 F4 | E2 F2 G2 F2 | E3 E ^D2 G2 | F2 E2 G2 G2 | G4 F4 | A4 G2 G2 | %15
 G2 E2 (D2 G2- | GF/E/ F2) G8 |] %17
V:3
 G,4 G,2 B,2 | B,2 D2 D2 G,2 | A,4 C4 | B,2 D2 =F2 D2 | D4 D4 :|[M:2/2] D4 D2 D2 | E2 D2 ^C3 C | %7
 D2 G,2 B,2 D2 | D2 D2 E4 | F4 D4 | B,2 D2 D2 D2 | %11
"^2. Das Meer sah dies und floh zuhand, ganz trocken wards im Grunde,\nder Jordan sich zurücke wand, daß man durchgehen kunnte,\ndie hohen Berge hüpften sehr, gleichwie die Schäflein junge,\nund alle Hügel rings umher gleich wie die Lämmer sprungen\nob diesem großen Wunder.\n\n3. Du Meer, wie war dir denn geschehn, daß du so ferne flohest?\nDu, Jordan, willst nicht weiter gehn, den Strom zurücke zogest.\nIhr Berg und Hügel sagt mir doch, wie wars um euch beschaffen,\ndaß ihr so hüpft und sprunget hoch, gleichwie die jungen Schafe?\nGotts Hand die Feind hat troffen.\n\n4. Die Erd erbebt, beweget sich vor unserm Gott und Herren,\ndem wahren Gott, den heiliglich die Kinder Jakobs ehren.\nDen Fels er wandelt in der Höh in einen Wasserbrunnen,\nes war ein reicher Strom und See aus hartem Stein entsprungen.\nSind das nicht große Wunder?" B,3 B, B,2 D2 | %12
 D2 B,2 B,2 E2 | D4 D4 | E4 E2 E2 | D2 C2 D4- | D4 D8 |] %17
V:4
 G,4 C,2 B,,2 | E,2 D,2 G,2 E,2 | D,4 C,4 | G,2 G,2 =F,2 G,2 | D,4 G,4 :|[M:2/2] G,4 D,2 G,2 | %6
 C,2 G,2 A,3 A, | D,2 G,2 E,2 D,2 | G,2 B,2 A,4 | D,4 D,4 | E,2 D,2 G,2 D,2 | E,3 E, B,,2 G,,2 | %12
 D,2 E,2 B,,2 C,2 | G,4 D,4 | A,,4 E,2 C,2 | B,,2 C,2 (G,4 | D,4) G,8 |] %17

